assets/svg/icon_button_invite.svg

<svg width="24" height="24" viewBox="0 0 24 24" fill="none" xmlns="http://www.w3.org/2000/svg">
<path d="M9 20.5C9 20.7761 9.22386 21 9.5 21C9.77614 21 10 20.7761 10 20.5H9ZM9 11.5C9.27614 11.5 9.5 11.2761 9.5 11C9.5 10.7239 9.27614 10.5 9 10.5V11.5ZM2 16.5C2 16.7761 2.22386 17 2.5 17C2.77614 17 3 16.7761 3 16.5H2ZM11.8709 4.99734C12.0291 5.22366 12.3408 5.27887 12.5671 5.12066C12.7934 4.96244 12.8487 4.65071 12.6904 4.42439L11.8709 4.99734ZM20 16.5C20 16.2239 19.7761 16 19.5 16C19.2239 16 19 16.2239 19 16.5H20ZM19 20.5C19 20.7761 19.2239 21 19.5 21C19.7761 21 20 20.7761 20 20.5H19ZM21.5 19C21.7761 19 22 18.7761 22 18.5C22 18.2239 21.7761 18 21.5 18V19ZM17.5 18C17.2239 18 17 18.2239 17 18.5C17 18.7761 17.2239 19 17.5 19V18ZM19.5 11C19.5 12.933 17.933 14.5 16 14.5V15.5C18.4853 15.5 20.5 13.4853 20.5 11H19.5ZM16 14.5C14.067 14.5 12.5 12.933 12.5 11H11.5C11.5 13.4853 13.5147 15.5 16 15.5V14.5ZM12.5 11C12.5 9.067 14.067 7.5 16 7.5V6.5C13.5147 6.5 11.5 8.51472 11.5 11H12.5ZM16 7.5C17.933 7.5 19.5 9.067 19.5 11H20.5C20.5 8.51472 18.4853 6.5 16 6.5V7.5ZM16 14.5C15.5125 14.5 13.8065 14.687 12.2042 15.5046C10.5798 16.3335 9 17.8516 9 20.5H10C10 18.3484 11.2455 17.1165 12.6587 16.3954C14.094 15.663 15.6381 15.5 16 15.5V14.5ZM9 10.5C7.067 10.5 5.5 8.933 5.5 7H4.5C4.5 9.48528 6.51472 11.5 9 11.5V10.5ZM5.5 7C5.5 5.067 7.067 3.5 9 3.5V2.5C6.51472 2.5 4.5 4.51472 4.5 7H5.5ZM9 10.5C8.51249 10.5 6.80654 10.687 5.2042 11.5046C3.57977 12.3335 2 13.8516 2 16.5H3C3 14.3484 4.2455 13.1165 5.65871 12.3954C7.09401 11.663 8.63806 11.5 9 11.5V10.5ZM9 3.5C10.1876 3.5 11.2373 4.09107 11.8709 4.99734L12.6904 4.42439C11.8778 3.26197 10.5279 2.5 9 2.5V3.5ZM19 16.5V18.5H20V16.5H19ZM19 18.5V20.5H20V18.5H19ZM21.5 18H19.5V19H21.5V18ZM19.5 18H17.5V19H19.5V18Z" fill="#0E0E0E"/>
</svg>

<svg xmlns="http://www.w3.org/2000/svg" width="24" height="24" fill="none"><path fill="#0E0E0E" d="M9 20.5a.5.5 0 0 0 1 0zm0-9a.5.5 0 0 0 0-1zm-7 5a.5.5 0 0 0 1 0zm9.87-11.503a.5.5 0 1 0 .82-.573zM20 16.5a.5.5 0 0 0-1 0zm-1 4a.5.5 0 0 0 1 0zm2.5-1.5a.5.5 0 0 0 0-1zm-4-1a.5.5 0 0 0 0 1zm2-7a3.5 3.5 0 0 1-3.5 3.5v1a4.5 4.5 0 0 0 4.5-4.5zM16 14.5a3.5 3.5 0 0 1-3.5-3.5h-1a4.5 4.5 0 0 0 4.5 4.5zM12.5 11A3.5 3.5 0 0 1 16 7.5v-1a4.5 4.5 0 0 0-4.5 4.5zM16 7.5a3.5 3.5 0 0 1 3.5 3.5h1A4.5 4.5 0 0 0 16 6.5zm0 7c-.488 0-2.193.187-3.796 1.005C10.58 16.334 9 17.852 9 20.5h1c0-2.152 1.245-3.384 2.659-4.105 1.435-.732 2.98-.895 3.341-.895zm-7-4A3.5 3.5 0 0 1 5.5 7h-1A4.5 4.5 0 0 0 9 11.5zM5.5 7A3.5 3.5 0 0 1 9 3.5v-1A4.5 4.5 0 0 0 4.5 7zM9 10.5c-.488 0-2.193.187-3.796 1.005C3.58 12.334 2 13.852 2 16.5h1c0-2.152 1.245-3.383 2.659-4.105C7.094 11.663 8.639 11.5 9 11.5zm0-7c1.188 0 2.237.591 2.87 1.497l.82-.573A4.5 4.5 0 0 0 9 2.5zm10 13v2h1v-2zm0 2v2h1v-2zm2.5-.5h-2v1h2zm-2 0h-2v1h2z"/></svg>
